icons/azure-16.svg

<svg width="16" height="16" viewBox="0 0 16 16" fill="none" xmlns="http://www.w3.org/2000/svg">
<g clip-path="url(#clip0_403_39306)">
<path fill-rule="evenodd" clip-rule="evenodd" d="M5.50161 0.43396H10.5214C10.7604 0.433989 10.9934 0.50901 11.1875 0.648453C11.3817 0.787896 11.5272 0.984733 11.6035 1.21124L15.94 14.0602C15.998 14.232 16.0143 14.4151 15.9874 14.5944C15.9606 14.7738 15.8914 14.9441 15.7857 15.0914C15.6799 15.2387 15.5406 15.3587 15.3793 15.4415C15.2179 15.5243 15.0392 15.5674 14.8579 15.5674H9.9631V15.563C9.92954 15.5659 9.89553 15.5672 9.86105 15.5672H9.8423C9.59698 15.5673 9.35817 15.4883 9.16122 15.342L5.97117 12.9721L5.35731 14.7902C5.28095 15.0167 5.13545 15.2136 4.94131 15.353C4.74717 15.4925 4.51418 15.5675 4.27515 15.5675H1.14225C0.960873 15.5675 0.782099 15.5244 0.620726 15.4416C0.459352 15.3588 0.320019 15.2387 0.214259 15.0914C0.108499 14.944 0.0393537 14.7736 0.012545 14.5942C-0.0142637 14.4148 0.00203569 14.2316 0.060094 14.0598L4.39659 1.21087C4.47295 0.984368 4.61844 0.78753 4.81258 0.648087C5.00672 0.508644 5.23972 0.433623 5.47874 0.433594L5.50161 0.43396ZM5.06185 11.2295L9.67203 14.6541C9.72126 14.6907 9.78096 14.7105 9.8423 14.7105H9.86105C9.9064 14.7105 9.95109 14.6997 9.99143 14.679C10.0318 14.6583 10.0666 14.6283 10.093 14.5915C10.1195 14.5546 10.1368 14.512 10.1435 14.4672C10.1502 14.4223 10.1461 14.3765 10.1315 14.3336L7.79595 7.41317L6.86157 9.83159L6.75568 10.1059H3.56636L5.06185 11.2295ZM14.8579 14.7105H10.9677C11.0235 14.4959 11.0149 14.2696 10.9432 14.0597L6.6336 1.29043H10.5214C10.5811 1.29046 10.6393 1.30921 10.6878 1.34405C10.7364 1.37889 10.7727 1.42806 10.7919 1.48465L15.1285 14.3336C15.143 14.3765 15.147 14.4223 15.1403 14.4672C15.1336 14.512 15.1163 14.5546 15.0899 14.5915C15.0634 14.6283 15.0286 14.6583 14.9882 14.679C14.9479 14.6997 14.9032 14.7105 14.8579 14.7105Z" fill="#656D76"/>
</g>
<defs>
<clipPath id="clip0_403_39306">
<rect width="16" height="16" fill="white"/>
</clipPath>
</defs>
</svg>

<svg xmlns="http://www.w3.org/2000/svg" width="16" height="16" viewBox="0 0 16 16"><path d="M5.502.434h5.019c.239 0 .472.075.667.214.194.14.339.337.416.563L15.94 14.06c.039.117.06.239.06.361v.009a1.135 1.135 0 0 1-.621 1.011c-.161.083-.34.126-.521.126H9.963v-.004a1.13 1.13 0 0 1-.102.004h-.019c-.245 0-.484-.079-.681-.225l-3.19-2.37-.614 1.818a1.137 1.137 0 0 1-1.082.778H1.142a1.15 1.15 0 0 1-.928-.477A1.123 1.123 0 0 1 0 14.425c0-.124.02-.247.06-.365L4.397 1.211A1.136 1.136 0 0 1 5.479.434Zm9.356 14.276a.28.28 0 0 0 .13-.031.285.285 0 0 0 .14-.345L10.792 1.485a.288.288 0 0 0-.271-.195H6.634l4.309 12.77c.072.21.081.436.025.65Zm-9.796-3.481 4.61 3.425a.282.282 0 0 0 .17.056h.019a.287.287 0 0 0 .283-.243.3.3 0 0 0-.012-.133L7.796 7.413l-.934 2.419-.106.274h-3.19Z"/></svg>
